X: 1
T: the Electric Jig
C: Robin Ellis
B: Priscilla Burrage, Sylvia Miskoe "Cross-Country Capers" #19
N: Tune for "The Piper's Leg"
R: jig
Z: 2006 John Chambers <jc:trillian.mit.edu>
M: 6/8
L: 1/8
K: Am
|:"Am"A2B cBA | "Am"e2d cBA |"Am"A2B cBA |  "G"BGB dcB \
| "Am"A2B cBA | "Am"e2d cBA | "G"BGB dcB | "Am"A3  A3 :|
|: "C"ceG c2e |  "C"g2f edc | "G"BdG B2d | "G7"f2e "(E7)"dcB \
| "Am"AcE A2c | "Am"e2d cBA | "G"G2A BAG | "Am"A3  A3 :|
